X:1
T:His Blood Availed for Me
T:His Blood Availed for Me
T:Albert Simpson Reitz
T:Albert Simpson Reitz, 1915
T:Public Domain Courtesy of the Cyber Hymnal™
C:Albert Simpson Reitz
Z:Public Domain
Z:Courtesy of the Cyber Hymnal™
%%score ( 1 2 ) ( 3 4 )
L:1/8
Q:1/4=110
M:4/4
K:G
V:1 treble 
V:2 treble 
V:3 bass 
V:4 bass 
V:1
 [DG][DA] | [GB]2 [Gd]2 [GB]2 [DG][DF] | [CE]2 [CG]2 [B,D]2 [B,D][B,D] | [DG]2 [DG]2 [GB]2 [Gd]2 | %4
w: 1.~There’s a|crim- son tide from the|Sav- ior’s side, And it|purg- eth all who|
w: 2.~There’s a|bound- less sea flow- ing|full and free, From the|cross where Je- sus|
w: 3.~From the|con- trite heart He doth|ne’er de- part, But He|of- fers par- don|
 [Fd]2 [FA]2 [FA]2 G[FA] | [GB]2 [Gd]2 [GB]2 [DG][DF] | [CE]2 [EG]2 [EG]2 [EG][EA] | %7
w: plunge there- in; O its|heal- ing stream doth the|soul re- deem, And it|
w: bled and died; O its|pre- cious flow wash- es|white as snow, And its|
w: o’er and o’er; He the|sins doth roll from the|bur- dened soul, And re-|
 [DB]2 [DG]2 [DB]2 [DA]2 | [DG]6 ||"^Refrain" [Gd]>[Gd] | [Ge]2 [Gd]4 [GB]>[GB] | [Gc]2 [GB]4 G2 | %12
w: cleans- eth from all|sin.||||
w: mer- cies e’er a-|bide.||||
w: mem- bers them no|more.||||
 [FA]2 [FA]2 [EG]2 [FA]2 | [GB]2 [Gd]2 [Gd]2 [Gd]>[Gd] | [Ge]2 [Gd]4 [GB]>[GB] | [Gc]2 [GB]4 G2 | %16
w: ||||
w: ||||
w: ||||
 [EA]2 [EA]2 [DG]2 [DF]2 | [DG]6 |] %18
w: ||
w: ||
w: ||
V:2
 x2 | x8 | x8 | x8 | x6 G x | x8 | x8 | x8 | x6 || x2 | x8 | x6 G2 | x8 | x8 | x8 | x6 G2 | x8 | %17
 x6 |] %18
V:3
 [G,B,][G,C] | [G,D]2 [G,B,]2 [G,D]2 [G,B,][B,,A,] | [C,G,]2 [E,G,]2 G,2 G,G, | %3
w: ~ ~|~ ~ ~ ~ ~|~ ~ ~ ~ ~|
 [G,B,]2 [G,B,]2 [G,D]2 [G,B,]2 | [D,A,]2 [D,D]2 D2 [B,,D][D,D] | %5
w: ~ ~ ~ ~|~ ~ ~ ~ ~|
 [G,D]2 [G,B,]2 [G,D]2 [G,B,][B,,A,] | [C,G,]2 [C,C]2 [C,C]2 [C,C][C,C] | %7
w: ~ ~ ~ ~ ~|~ ~ ~ ~ ~|
 [D,G,]2 [D,B,]2 [D,G,]2 [D,C]2 | [G,,G,B,]6 || [G,B,]>[G,B,] | [G,C]2 [G,B,]4 [G,D]>[G,D] | %11
w: ~ ~ ~ ~|~|Hal- le-|lu- jah! Hal- le-|
 [G,E]2 [G,D]4 [B,,D]2 | [D,D]2 [D,C]2 [E,B,]2 [D,D]2 | [G,D]2 [G,B,]2 [G,B,]2 [G,B,]>[G,B,] | %14
w: lu- jah! It|cleansed my heart and|made me free; Hal- le-|
 [G,C]2 [G,B,]4 [G,D]>[G,D] | [G,E]2 [G,D]4 [B,,D]2 | [C,C]2 [C,C]2 [D,B,]2 [D,A,]2 | [G,,G,B,]6 |] %18
w: lu- jah! Hal- le-|lu- jah! His|blood a- vailed for|me.|
V:4
 x2 | x8 | x4 G,2 G,G, | x8 | x4 (D,C,) x2 | x8 | x8 | x8 | x6 || x2 | x8 | x8 | x8 | x8 | x8 | %15
 x8 | x8 | x6 |] %18

